icons/layout-flex-columns-filled.svg

<svg fill="none" viewBox="0 0 24 24"><path stroke="currentColor" stroke-linecap="round" stroke-linejoin="round" stroke-width="2" d="M9.8 7h-2.9m2.9 3.3h-2.9m10.2-3.4h-2.9m2.9 3.4h-2.9m-4.4 3.4h-2.9m2.9 3.4h-2.9m-3.9-10.7v11.2a3.4 3.4 0 0 0 3.4 3.4h11.2a3.4 3.4 0 0 0 3.4-3.4v-11.2a3.4 3.4 0 0 0-3.4-3.4h-11.2a3.4 3.4 0 0 0-3.4 3.4Z"/></svg>

<svg fill="none" viewBox="0 0 24 24"><path stroke="currentColor" stroke-linecap="round" stroke-linejoin="round" stroke-width="2" d="M9.8 7H6.9m2.9 3.3H6.9M17.1 7h-2.9m2.9 3.4h-2.9m-4.4 3.4H6.9M9.8 17H6.9M3 6.4v11.2A3.4 3.4 0 0 0 6.4 21h11.2a3.4 3.4 0 0 0 3.4-3.4V6.4A3.4 3.4 0 0 0 17.6 3H6.4A3.4 3.4 0 0 0 3 6.4"/></svg>
